images/3234053.svg

<?xml version="1.0" encoding="UTF-8"?>
<svg xmlns="http://www.w3.org/2000/svg" xmlns:xlink="http://www.w3.org/1999/xlink" width="300pt" height="300pt" viewBox="0 0 300 300" version="1.1">
<defs>
<g>
<symbol overflow="visible" id="glyph0-0">
<path style="stroke:none;" d="M 0.453125 1.59375 L 0.453125 -6.34375 L 4.953125 -6.34375 L 4.953125 1.59375 Z M 0.953125 1.09375 L 4.453125 1.09375 L 4.453125 -5.84375 L 0.953125 -5.84375 Z M 0.953125 1.09375 "/>
</symbol>
<symbol overflow="visible" id="glyph0-1">
<path style="stroke:none;" d="M 0.890625 -6.5625 L 2.078125 -6.5625 L 4.984375 -1.078125 L 4.984375 -6.5625 L 5.84375 -6.5625 L 5.84375 0 L 4.65625 0 L 1.75 -5.484375 L 1.75 0 L 0.890625 0 Z M 0.890625 -6.5625 "/>
</symbol>
<symbol overflow="visible" id="glyph0-2">
<path style="stroke:none;" d="M 0.890625 -6.5625 L 1.765625 -6.5625 L 1.765625 -3.875 L 5 -3.875 L 5 -6.5625 L 5.890625 -6.5625 L 5.890625 0 L 5 0 L 5 -3.125 L 1.765625 -3.125 L 1.765625 0 L 0.890625 0 Z M 0.890625 -6.5625 "/>
</symbol>
<symbol overflow="visible" id="glyph0-3">
<path style="stroke:none;" d="M 3.546875 -5.953125 C 2.898438 -5.953125 2.382812 -5.710938 2 -5.234375 C 1.625 -4.753906 1.4375 -4.101562 1.4375 -3.28125 C 1.4375 -2.445312 1.625 -1.789062 2 -1.3125 C 2.382812 -0.832031 2.898438 -0.59375 3.546875 -0.59375 C 4.191406 -0.59375 4.703125 -0.832031 5.078125 -1.3125 C 5.453125 -1.789062 5.640625 -2.445312 5.640625 -3.28125 C 5.640625 -4.101562 5.453125 -4.753906 5.078125 -5.234375 C 4.703125 -5.710938 4.191406 -5.953125 3.546875 -5.953125 Z M 3.546875 -6.6875 C 4.460938 -6.6875 5.195312 -6.375 5.75 -5.75 C 6.300781 -5.132812 6.578125 -4.3125 6.578125 -3.28125 C 6.578125 -2.238281 6.300781 -1.410156 5.75 -0.796875 C 5.195312 -0.179688 4.460938 0.125 3.546875 0.125 C 2.617188 0.125 1.878906 -0.179688 1.328125 -0.796875 C 0.773438 -1.410156 0.5 -2.238281 0.5 -3.28125 C 0.5 -4.3125 0.773438 -5.132812 1.328125 -5.75 C 1.878906 -6.375 2.617188 -6.6875 3.546875 -6.6875 Z M 3.546875 -6.6875 "/>
</symbol>
</g>
</defs>
<g id="surface33817">
<rect x="0" y="0" width="300" height="300" style="fill:rgb(100%,100%,100%);fill-opacity:1;stroke:none;"/>
<path style="fill:none;stroke-width:1.2;stroke-linecap:butt;stroke-linejoin:miter;stroke:rgb(0%,0%,0%);stroke-opacity:1;stroke-miterlimit:10;" d="M 264.75 126.523438 L 241.800781 128.390625 "/>
<path style="fill:none;stroke-width:1.2;stroke-linecap:butt;stroke-linejoin:miter;stroke:rgb(0%,0%,0%);stroke-opacity:1;stroke-miterlimit:10;" d="M 241.800781 128.390625 L 231.941406 149.199219 "/>
<path style="fill:none;stroke-width:1.2;stroke-linecap:butt;stroke-linejoin:miter;stroke:rgb(0%,0%,0%);stroke-opacity:1;stroke-miterlimit:10;" d="M 235.917969 128.152344 L 228.03125 144.800781 "/>
<path style="fill:none;stroke-width:1.2;stroke-linecap:butt;stroke-linejoin:miter;stroke:rgb(0%,0%,100%);stroke-opacity:1;stroke-miterlimit:10;" d="M 228.707031 109.449219 L 235.253906 118.921875 "/>
<path style="fill:none;stroke-width:1.2;stroke-linecap:butt;stroke-linejoin:miter;stroke:rgb(0%,0%,0%);stroke-opacity:1;stroke-miterlimit:10;" d="M 235.253906 118.921875 L 241.800781 128.390625 "/>
<path style="fill:none;stroke-width:1.2;stroke-linecap:butt;stroke-linejoin:miter;stroke:rgb(0%,0%,0%);stroke-opacity:1;stroke-miterlimit:10;" d="M 231.941406 149.199219 L 220.46875 150.132812 "/>
<path style="fill:none;stroke-width:1.2;stroke-linecap:butt;stroke-linejoin:miter;stroke:rgb(0%,0%,100%);stroke-opacity:1;stroke-miterlimit:10;" d="M 220.46875 150.132812 L 208.992188 151.066406 "/>
<path style="fill:none;stroke-width:1.2;stroke-linecap:butt;stroke-linejoin:miter;stroke:rgb(0%,0%,100%);stroke-opacity:1;stroke-miterlimit:10;" d="M 208.992188 151.066406 L 202.445312 141.597656 "/>
<path style="fill:none;stroke-width:1.2;stroke-linecap:butt;stroke-linejoin:miter;stroke:rgb(0%,0%,0%);stroke-opacity:1;stroke-miterlimit:10;" d="M 202.445312 141.597656 L 195.898438 132.125 "/>
<path style="fill:none;stroke-width:1.2;stroke-linecap:butt;stroke-linejoin:miter;stroke:rgb(0%,0%,100%);stroke-opacity:1;stroke-miterlimit:10;" d="M 212.140625 146.09375 L 206.902344 138.515625 "/>
<path style="fill:none;stroke-width:1.2;stroke-linecap:butt;stroke-linejoin:miter;stroke:rgb(0%,0%,0%);stroke-opacity:1;stroke-miterlimit:10;" d="M 206.902344 138.515625 L 201.667969 130.941406 "/>
<path style=" stroke:none;fill-rule:nonzero;fill:rgb(100%,100%,100%);fill-opacity:1;" d="M 205.992188 145.566406 L 212.992188 145.566406 L 212.992188 156.566406 L 205.992188 156.566406 Z M 205.992188 145.566406 "/>
<g style="fill:rgb(0%,0%,100%);fill-opacity:1;">
  <use xlink:href="#glyph0-1" x="205.992188" y="154.229492"/>
</g>
<path style="fill:none;stroke-width:1.2;stroke-linecap:butt;stroke-linejoin:miter;stroke:rgb(0%,0%,0%);stroke-opacity:1;stroke-miterlimit:10;" d="M 195.898438 132.125 L 205.757812 111.316406 "/>
<path style="fill:none;stroke-width:1.2;stroke-linecap:butt;stroke-linejoin:miter;stroke:rgb(0%,0%,0%);stroke-opacity:1;stroke-miterlimit:10;" d="M 195.898438 132.125 L 172.949219 133.992188 "/>
<path style="fill:none;stroke-width:1.2;stroke-linecap:butt;stroke-linejoin:miter;stroke:rgb(0%,0%,0%);stroke-opacity:1;stroke-miterlimit:10;" d="M 205.757812 111.316406 L 217.234375 110.382812 "/>
<path style="fill:none;stroke-width:1.2;stroke-linecap:butt;stroke-linejoin:miter;stroke:rgb(0%,0%,100%);stroke-opacity:1;stroke-miterlimit:10;" d="M 217.234375 110.382812 L 228.707031 109.449219 "/>
<path style="fill:none;stroke-width:1.2;stroke-linecap:butt;stroke-linejoin:miter;stroke:rgb(0%,0%,0%);stroke-opacity:1;stroke-miterlimit:10;" d="M 208.492188 116.53125 L 217.671875 115.785156 "/>
<path style="fill:none;stroke-width:1.2;stroke-linecap:butt;stroke-linejoin:miter;stroke:rgb(0%,0%,100%);stroke-opacity:1;stroke-miterlimit:10;" d="M 217.671875 115.785156 L 226.851562 115.035156 "/>
<path style=" stroke:none;fill-rule:nonzero;fill:rgb(100%,100%,100%);fill-opacity:1;" d="M 225.707031 103.949219 L 232.707031 103.949219 L 232.707031 114.949219 L 225.707031 114.949219 Z M 225.707031 103.949219 "/>
<g style="fill:rgb(0%,0%,100%);fill-opacity:1;">
  <use xlink:href="#glyph0-1" x="225.707031" y="112.612305"/>
</g>
<path style="fill:none;stroke-width:1.2;stroke-linecap:butt;stroke-linejoin:miter;stroke:rgb(0%,0%,0%);stroke-opacity:1;stroke-miterlimit:10;" d="M 172.949219 133.992188 L 168.019531 144.398438 "/>
<path style="fill:none;stroke-width:1.2;stroke-linecap:butt;stroke-linejoin:miter;stroke:rgb(0%,0%,100%);stroke-opacity:1;stroke-miterlimit:10;" d="M 168.019531 144.398438 L 163.09375 154.800781 "/>
<path style="fill:none;stroke-width:1.2;stroke-linecap:butt;stroke-linejoin:miter;stroke:rgb(0%,0%,100%);stroke-opacity:1;stroke-miterlimit:10;" d="M 163.09375 154.800781 L 151.617188 155.734375 "/>
<path style="fill:none;stroke-width:1.2;stroke-linecap:butt;stroke-linejoin:miter;stroke:rgb(0%,0%,0%);stroke-opacity:1;stroke-miterlimit:10;" d="M 151.617188 155.734375 L 140.140625 156.667969 "/>
<path style=" stroke:none;fill-rule:nonzero;fill:rgb(100%,100%,100%);fill-opacity:1;" d="M 156.09375 149.300781 L 170.09375 149.300781 L 170.09375 160.300781 L 156.09375 160.300781 Z M 156.09375 149.300781 "/>
<g style="fill:rgb(0%,0%,100%);fill-opacity:1;">
  <use xlink:href="#glyph0-1" x="156.09375" y="157.963867"/>
  <use xlink:href="#glyph0-2" x="163.071289" y="157.963867"/>
</g>
<path style="fill:none;stroke-width:1.2;stroke-linecap:butt;stroke-linejoin:miter;stroke:rgb(0%,0%,0%);stroke-opacity:1;stroke-miterlimit:10;" d="M 140.140625 156.667969 L 133.597656 147.199219 "/>
<path style="fill:none;stroke-width:1.2;stroke-linecap:butt;stroke-linejoin:miter;stroke:rgb(0%,0%,100%);stroke-opacity:1;stroke-miterlimit:10;" d="M 133.597656 147.199219 L 127.050781 137.726562 "/>
<path style="fill:none;stroke-width:1.2;stroke-linecap:butt;stroke-linejoin:miter;stroke:rgb(0%,0%,0%);stroke-opacity:1;stroke-miterlimit:10;" d="M 134.375 157.855469 L 129.140625 150.28125 "/>
<path style="fill:none;stroke-width:1.2;stroke-linecap:butt;stroke-linejoin:miter;stroke:rgb(0%,0%,100%);stroke-opacity:1;stroke-miterlimit:10;" d="M 129.140625 150.28125 L 123.902344 142.703125 "/>
<path style="fill:none;stroke-width:1.2;stroke-linecap:butt;stroke-linejoin:miter;stroke:rgb(0%,0%,0%);stroke-opacity:1;stroke-miterlimit:10;" d="M 130.285156 177.480469 L 140.140625 156.667969 "/>
<path style="fill:none;stroke-width:1.2;stroke-linecap:butt;stroke-linejoin:miter;stroke:rgb(0%,0%,100%);stroke-opacity:1;stroke-miterlimit:10;" d="M 127.050781 137.726562 L 115.574219 138.660156 "/>
<path style="fill:none;stroke-width:1.2;stroke-linecap:butt;stroke-linejoin:miter;stroke:rgb(0%,0%,0%);stroke-opacity:1;stroke-miterlimit:10;" d="M 115.574219 138.660156 L 104.101562 139.59375 "/>
<path style=" stroke:none;fill-rule:nonzero;fill:rgb(100%,100%,100%);fill-opacity:1;" d="M 124.050781 132.226562 L 131.050781 132.226562 L 131.050781 143.226562 L 124.050781 143.226562 Z M 124.050781 132.226562 "/>
<g style="fill:rgb(0%,0%,100%);fill-opacity:1;">
  <use xlink:href="#glyph0-1" x="124.050781" y="140.889648"/>
</g>
<path style="fill:none;stroke-width:1.2;stroke-linecap:butt;stroke-linejoin:miter;stroke:rgb(0%,0%,0%);stroke-opacity:1;stroke-miterlimit:10;" d="M 104.101562 139.59375 L 99.171875 150 "/>
<path style="fill:none;stroke-width:1.2;stroke-linecap:butt;stroke-linejoin:miter;stroke:rgb(0%,0%,100%);stroke-opacity:1;stroke-miterlimit:10;" d="M 99.171875 150 L 94.242188 160.40625 "/>
<path style="fill:none;stroke-width:1.2;stroke-linecap:butt;stroke-linejoin:miter;stroke:rgb(0%,0%,0%);stroke-opacity:1;stroke-miterlimit:10;" d="M 108.011719 143.996094 L 104.066406 152.320312 "/>
<path style="fill:none;stroke-width:1.2;stroke-linecap:butt;stroke-linejoin:miter;stroke:rgb(0%,0%,100%);stroke-opacity:1;stroke-miterlimit:10;" d="M 104.066406 152.320312 L 100.125 160.644531 "/>
<path style="fill:none;stroke-width:1.2;stroke-linecap:butt;stroke-linejoin:miter;stroke:rgb(0%,0%,0%);stroke-opacity:1;stroke-miterlimit:10;" d="M 104.101562 139.59375 L 91.007812 120.652344 "/>
<path style="fill:none;stroke-width:1.2;stroke-linecap:butt;stroke-linejoin:miter;stroke:rgb(0%,0%,100%);stroke-opacity:1;stroke-miterlimit:10;" d="M 94.242188 160.40625 L 100.789062 169.875 "/>
<path style="fill:none;stroke-width:1.2;stroke-linecap:butt;stroke-linejoin:miter;stroke:rgb(0%,0%,0%);stroke-opacity:1;stroke-miterlimit:10;" d="M 100.789062 169.875 L 107.335938 179.347656 "/>
<path style=" stroke:none;fill-rule:nonzero;fill:rgb(100%,100%,100%);fill-opacity:1;" d="M 91.242188 154.90625 L 98.242188 154.90625 L 98.242188 165.90625 L 91.242188 165.90625 Z M 91.242188 154.90625 "/>
<g style="fill:rgb(0%,0%,100%);fill-opacity:1;">
  <use xlink:href="#glyph0-1" x="91.242188" y="163.569336"/>
</g>
<path style="fill:none;stroke-width:1.2;stroke-linecap:butt;stroke-linejoin:miter;stroke:rgb(0%,0%,0%);stroke-opacity:1;stroke-miterlimit:10;" d="M 107.335938 179.347656 L 97.476562 200.15625 "/>
<path style="fill:none;stroke-width:1.2;stroke-linecap:butt;stroke-linejoin:miter;stroke:rgb(0%,0%,0%);stroke-opacity:1;stroke-miterlimit:10;" d="M 111.246094 183.746094 L 103.359375 200.394531 "/>
<path style="fill:none;stroke-width:1.2;stroke-linecap:butt;stroke-linejoin:miter;stroke:rgb(0%,0%,0%);stroke-opacity:1;stroke-miterlimit:10;" d="M 130.285156 177.480469 L 107.335938 179.347656 "/>
<path style="fill:none;stroke-width:1.2;stroke-linecap:butt;stroke-linejoin:miter;stroke:rgb(0%,0%,0%);stroke-opacity:1;stroke-miterlimit:10;" d="M 97.476562 200.15625 L 110.570312 219.097656 "/>
<path style="fill:none;stroke-width:1.2;stroke-linecap:butt;stroke-linejoin:miter;stroke:rgb(0%,0%,0%);stroke-opacity:1;stroke-miterlimit:10;" d="M 110.570312 219.097656 L 133.519531 217.230469 "/>
<path style="fill:none;stroke-width:1.2;stroke-linecap:butt;stroke-linejoin:miter;stroke:rgb(0%,0%,0%);stroke-opacity:1;stroke-miterlimit:10;" d="M 112.425781 213.511719 L 130.785156 212.015625 "/>
<path style="fill:none;stroke-width:1.2;stroke-linecap:butt;stroke-linejoin:miter;stroke:rgb(0%,0%,0%);stroke-opacity:1;stroke-miterlimit:10;" d="M 133.519531 217.230469 L 143.375 196.421875 "/>
<path style="fill:none;stroke-width:1.2;stroke-linecap:butt;stroke-linejoin:miter;stroke:rgb(0%,0%,0%);stroke-opacity:1;stroke-miterlimit:10;" d="M 143.375 196.421875 L 130.285156 177.480469 "/>
<path style="fill:none;stroke-width:1.2;stroke-linecap:butt;stroke-linejoin:miter;stroke:rgb(0%,0%,0%);stroke-opacity:1;stroke-miterlimit:10;" d="M 137.609375 197.605469 L 127.136719 182.453125 "/>
<path style="fill:none;stroke-width:1.2;stroke-linecap:butt;stroke-linejoin:miter;stroke:rgb(0%,0%,0%);stroke-opacity:1;stroke-miterlimit:10;" d="M 91.007812 120.652344 L 100.867188 99.84375 "/>
<path style="fill:none;stroke-width:1.2;stroke-linecap:butt;stroke-linejoin:miter;stroke:rgb(0%,0%,0%);stroke-opacity:1;stroke-miterlimit:10;" d="M 87.097656 116.253906 L 94.984375 99.605469 "/>
<path style="fill:none;stroke-width:1.2;stroke-linecap:butt;stroke-linejoin:miter;stroke:rgb(0%,0%,0%);stroke-opacity:1;stroke-miterlimit:10;" d="M 68.058594 122.519531 L 91.007812 120.652344 "/>
<path style="fill:none;stroke-width:1.2;stroke-linecap:butt;stroke-linejoin:miter;stroke:rgb(0%,0%,0%);stroke-opacity:1;stroke-miterlimit:10;" d="M 100.867188 99.84375 L 87.773438 80.902344 "/>
<path style="fill:none;stroke-width:1.2;stroke-linecap:butt;stroke-linejoin:miter;stroke:rgb(0%,0%,0%);stroke-opacity:1;stroke-miterlimit:10;" d="M 87.773438 80.902344 L 64.824219 82.769531 "/>
<path style="fill:none;stroke-width:1.2;stroke-linecap:butt;stroke-linejoin:miter;stroke:rgb(0%,0%,0%);stroke-opacity:1;stroke-miterlimit:10;" d="M 85.917969 86.488281 L 67.558594 87.984375 "/>
<path style="fill:none;stroke-width:1.2;stroke-linecap:butt;stroke-linejoin:miter;stroke:rgb(0%,0%,0%);stroke-opacity:1;stroke-miterlimit:10;" d="M 64.824219 82.769531 L 54.964844 103.578125 "/>
<path style="fill:none;stroke-width:1.2;stroke-linecap:butt;stroke-linejoin:miter;stroke:rgb(0%,0%,0%);stroke-opacity:1;stroke-miterlimit:10;" d="M 54.964844 103.578125 L 68.058594 122.519531 "/>
<path style="fill:none;stroke-width:1.2;stroke-linecap:butt;stroke-linejoin:miter;stroke:rgb(0%,0%,0%);stroke-opacity:1;stroke-miterlimit:10;" d="M 60.730469 102.394531 L 71.207031 117.546875 "/>
<path style="fill:none;stroke-width:1.2;stroke-linecap:butt;stroke-linejoin:miter;stroke:rgb(0%,0%,0%);stroke-opacity:1;stroke-miterlimit:10;" d="M 68.058594 122.519531 L 63.128906 132.925781 "/>
<path style="fill:none;stroke-width:1.2;stroke-linecap:butt;stroke-linejoin:miter;stroke:rgb(100%,0%,0%);stroke-opacity:1;stroke-miterlimit:10;" d="M 63.128906 132.925781 L 58.199219 143.332031 "/>
<path style="fill:none;stroke-width:1.2;stroke-linecap:butt;stroke-linejoin:miter;stroke:rgb(100%,0%,0%);stroke-opacity:1;stroke-miterlimit:10;" d="M 58.199219 143.332031 L 46.726562 144.265625 "/>
<path style="fill:none;stroke-width:1.2;stroke-linecap:butt;stroke-linejoin:miter;stroke:rgb(0%,0%,0%);stroke-opacity:1;stroke-miterlimit:10;" d="M 46.726562 144.265625 L 35.25 145.199219 "/>
<path style=" stroke:none;fill-rule:nonzero;fill:rgb(100%,100%,100%);fill-opacity:1;" d="M 54.199219 137.832031 L 62.199219 137.832031 L 62.199219 148.832031 L 54.199219 148.832031 Z M 54.199219 137.832031 "/>
<g style="fill:rgb(100%,0%,0%);fill-opacity:1;">
  <use xlink:href="#glyph0-3" x="54.199219" y="146.495117"/>
</g>
</g>
</svg>

<svg xmlns="http://www.w3.org/2000/svg" xmlns:xlink="http://www.w3.org/1999/xlink" width="300pt" height="300pt" viewBox="0 0 300 300"><defs><symbol overflow="visible"><path d="M.453 1.594v-7.938h4.5v7.938zm.5-.5h3.5v-6.938h-3.5zm0 0"/></symbol><symbol overflow="visible" id="a"><path d="M.89-6.563H2.08l2.906 5.485v-5.484h.86V0H4.656L1.75-5.484V0H.89zm0 0"/></symbol><symbol overflow="visible" id="b"><path d="M.89-6.563h.876v2.688H5v-2.688h.89V0H5v-3.125H1.766V0H.89zm0 0"/></symbol><symbol overflow="visible" id="c"><path d="M3.547-5.953c-.65 0-1.164.242-1.547.72-.375.48-.563 1.13-.563 1.952 0 .835.188 1.49.563 1.967.383.48.898.72 1.547.72.644 0 1.156-.24 1.53-.72.376-.476.564-1.132.564-1.968 0-.822-.187-1.474-.562-1.954-.375-.477-.887-.72-1.53-.72zm0-.734c.914 0 1.648.312 2.203.937.55.617.828 1.438.828 2.47 0 1.042-.277 1.87-.828 2.483-.555.617-1.29.922-2.203.922-.93 0-1.668-.305-2.22-.922C.774-1.41.5-2.237.5-3.28c0-1.033.273-1.853.828-2.47.55-.625 1.29-.938 2.22-.938zm0 0"/></symbol></defs><g><path fill="#fff" d="M0 0h300v300H0z"/><path d="M264.75 126.523l-22.95 1.868M241.8 128.39l-9.86 20.81M235.918 128.152l-7.887 16.65" stroke-width="1.2" stroke="#000" stroke-miterlimit="10" fill="none"/><path d="M228.707 109.45l6.547 9.472" stroke-width="1.2" stroke="#00f" stroke-miterlimit="10" fill="none"/><path d="M235.254 118.922l6.547 9.47M231.94 149.2l-11.47.933" stroke-width="1.2" stroke="#000" stroke-miterlimit="10" fill="none"/><path d="M220.47 150.133l-11.478.933M208.992 151.066l-6.547-9.468" stroke-width="1.2" stroke="#00f" stroke-miterlimit="10" fill="none"/><path d="M202.445 141.598l-6.547-9.473" stroke-width="1.2" stroke="#000" stroke-miterlimit="10" fill="none"/><path d="M212.14 146.094l-5.238-7.578" stroke-width="1.2" stroke="#00f" stroke-miterlimit="10" fill="none"/><path d="M206.902 138.516l-5.234-7.575" stroke-width="1.2" stroke="#000" stroke-miterlimit="10" fill="none"/><path d="M205.992 145.566h7v11h-7zm0 0" fill="#fff"/><use xlink:href="#a" x="205.992" y="154.229" fill="#00f"/><path d="M195.898 132.125l9.86-20.81M195.898 132.125l-22.95 1.867M205.758 111.316l11.476-.933" stroke-width="1.2" stroke="#000" stroke-miterlimit="10" fill="none"/><path d="M217.234 110.383l11.473-.934" stroke-width="1.2" stroke="#00f" stroke-miterlimit="10" fill="none"/><path d="M208.492 116.53l9.18-.745" stroke-width="1.2" stroke="#000" stroke-miterlimit="10" fill="none"/><path d="M217.672 115.785l9.18-.75" stroke-width="1.2" stroke="#00f" stroke-miterlimit="10" fill="none"/><path d="M225.707 103.95h7v11h-7zm0 0" fill="#fff"/><use xlink:href="#a" x="225.707" y="112.612" fill="#00f"/><path d="M172.95 133.992l-4.93 10.406" stroke-width="1.2" stroke="#000" stroke-miterlimit="10" fill="none"/><path d="M168.02 144.398l-4.926 10.403M163.094 154.8l-11.477.934" stroke-width="1.2" stroke="#00f" stroke-miterlimit="10" fill="none"/><path d="M151.617 155.734l-11.476.934" stroke-width="1.2" stroke="#000" stroke-miterlimit="10" fill="none"/><path d="M156.094 149.3h14v11h-14zm0 0" fill="#fff"/><g fill="#00f"><use xlink:href="#a" x="156.094" y="157.964"/><use xlink:href="#b" x="163.071" y="157.964"/></g><path d="M140.14 156.668l-6.542-9.47" stroke-width="1.2" stroke="#000" stroke-miterlimit="10" fill="none"/><path d="M133.598 147.2l-6.547-9.473" stroke-width="1.2" stroke="#00f" stroke-miterlimit="10" fill="none"/><path d="M134.375 157.855l-5.234-7.574" stroke-width="1.2" stroke="#000" stroke-miterlimit="10" fill="none"/><path d="M129.14 150.28l-5.238-7.577" stroke-width="1.2" stroke="#00f" stroke-miterlimit="10" fill="none"/><path d="M130.285 177.48l9.856-20.812" stroke-width="1.2" stroke="#000" stroke-miterlimit="10" fill="none"/><path d="M127.05 137.727l-11.476.933" stroke-width="1.2" stroke="#00f" stroke-miterlimit="10" fill="none"/><path d="M115.574 138.66l-11.472.934" stroke-width="1.2" stroke="#000" stroke-miterlimit="10" fill="none"/><path d="M124.05 132.227h7v11h-7zm0 0" fill="#fff"/><use xlink:href="#a" x="124.051" y="140.89" fill="#00f"/><path d="M104.102 139.594L99.172 150" stroke-width="1.2" stroke="#000" stroke-miterlimit="10" fill="none"/><path d="M99.172 150l-4.93 10.406" stroke-width="1.2" stroke="#00f" stroke-miterlimit="10" fill="none"/><path d="M108.012 143.996l-3.946 8.324" stroke-width="1.2" stroke="#000" stroke-miterlimit="10" fill="none"/><path d="M104.066 152.32l-3.94 8.325" stroke-width="1.2" stroke="#00f" stroke-miterlimit="10" fill="none"/><path d="M104.102 139.594l-13.094-18.942" stroke-width="1.2" stroke="#000" stroke-miterlimit="10" fill="none"/><path d="M94.242 160.406l6.547 9.47" stroke-width="1.2" stroke="#00f" stroke-miterlimit="10" fill="none"/><path d="M100.79 169.875l6.546 9.473" stroke-width="1.2" stroke="#000" stroke-miterlimit="10" fill="none"/><path d="M91.242 154.906h7v11h-7zm0 0" fill="#fff"/><use xlink:href="#a" x="91.242" y="163.569" fill="#00f"/><path d="M107.336 179.348l-9.86 20.808M111.246 183.746l-7.887 16.65M130.285 177.48l-22.95 1.868M97.477 200.156l13.093 18.942M110.57 219.098l22.95-1.868M112.426 213.512l18.36-1.496M133.52 217.23l9.855-20.808M143.375 196.422l-13.09-18.942M137.61 197.605l-10.473-15.152M91.008 120.652l9.86-20.808M87.098 116.254l7.886-16.65M68.06 122.52l22.948-1.868M100.867 99.844L87.773 80.902M87.773 80.902l-22.95 1.868M85.918 86.488l-18.36 1.496M64.824 82.77l-9.86 20.808M54.965 103.578L68.06 122.52M60.73 102.395l10.477 15.152M68.06 122.52l-4.93 10.406" stroke-width="1.2" stroke="#000" stroke-miterlimit="10" fill="none"/><path d="M63.13 132.926l-4.93 10.406M58.2 143.332l-11.473.934" stroke-width="1.2" stroke="#f00" stroke-miterlimit="10" fill="none"/><path d="M46.727 144.266l-11.477.933" stroke-width="1.2" stroke="#000" stroke-miterlimit="10" fill="none"/><path d="M54.2 137.832h8v11h-8zm0 0" fill="#fff"/><use xlink:href="#c" x="54.199" y="146.495" fill="#f00"/></g></svg>
